icons/cog-outline.svg

<svg xmlns="http://www.w3.org/2000/svg" width="24" height="24" viewBox="0 0 24 24">
  <path d="M13,1 C14.0543618,1 14.9181651,1.81587779 14.9945142,2.85048084 L15,2.99970472 L15,4.583 L15.2453119,4.68591649 C15.6597437,4.87004012 16.0572633,5.0890377 16.4337893,5.34014172 L16.7121838,5.53444645 L16.921,5.694 L18.2942286,4.90192379 C19.1573131,4.40362176 20.2374237,4.62172568 20.8459776,5.37173033 L20.9429189,5.50162447 L21.0262794,5.6339746 L22.0262794,7.3660254 C22.5522649,8.27705897 22.2800327,9.42990258 21.4267529,10.0146151 L21.2944303,10.0979598 L19.922,10.89 L19.9651768,11.249314 L19.9803869,11.4360045 L19.991272,11.6233859 L20,12 C20,12.1678835 19.9948147,12.3351447 19.9844967,12.501609 L19.9651768,12.750686 L19.922,13.109 L21.2942286,13.9019238 C22.1573131,14.4002258 22.5084848,15.444681 22.1632387,16.3467065 L22.0992178,16.4956072 L22.0262794,16.6339746 L21.0262794,18.3660254 C20.500294,19.277059 19.365786,19.6177207 18.4327392,19.1710972 L18.2943944,19.0981719 L16.921,18.305 L16.7121838,18.4655536 C16.3464097,18.7325378 15.9586215,18.9681075 15.5529009,19.1694952 L15.2453119,19.3140835 L15,19.416 L15,21 C15,22.0016437 14.2636703,22.8313084 13.3027743,22.9772306 L13.1492623,22.9945143 L13,23 L11,23 C9.9456382,23 9.08183488,22.1841222 9.00548574,21.1492799 L9,21.0000202 L8.999,19.416 L8.75518572,19.3143046 C8.34065807,19.1301723 7.94304735,18.911151 7.56643756,18.6600096 L7.2879817,18.4656744 L7.078,18.305 L5.70577137,19.0980762 C4.84268693,19.5963782 3.76257632,19.3782743 3.15402239,18.6282697 L3.05708107,18.4983755 L2.97372056,18.3660254 L1.97372056,16.6339746 C1.44773508,15.722941 1.71996735,14.5700974 2.57324708,13.9853849 L2.70556974,13.9020402 L4.077,13.109 L4.03482323,12.750686 L4.01961307,12.5639955 L4.00872803,12.3766141 L4,12 C4,11.8321165 4.00518534,11.6648553 4.01550333,11.498391 L4.03482323,11.249314 L4.077,10.89 L2.70577137,10.0980762 C1.84268693,9.59977418 1.49151516,8.55531899 1.83676128,7.6532935 L1.90078225,7.50439278 L1.97372056,7.3660254 L2.97372056,5.6339746 C3.49970603,4.72294103 4.63421401,4.38227928 5.56726077,4.82890281 L5.70560557,4.90182809 L7.078,5.694 L7.2879817,5.53432563 C7.65383578,5.26729732 8.04171178,5.0316968 8.44752572,4.83029306 L8.75518572,4.68569542 L8.999,4.583 L9,3 C9,1.99835629 9.73632971,1.16869161 10.6972257,1.0227694 L10.8507377,1.00548574 L11,1 L13,1 Z M13,3 L11,3 L10.9999537,5.2899127 C10.9999447,5.73232105 10.7092368,6.12214396 10.28521,6.24834374 C9.38405134,6.51654849 8.5603153,6.99469216 7.87798944,7.64004192 C7.5888441,7.91351812 7.16894043,7.98685064 6.80863962,7.83765079 L6.69100799,7.77964485 L4.70577137,6.6339746 L3.70577137,8.3660254 L5.68915962,9.51175092 C6.07175022,9.73275849 6.26395378,10.1786524 6.16193764,10.6085508 C6.0547171,11.0603807 6,11.5262276 6,12 C6,12.4737724 6.0547171,12.9396193 6.16193764,13.3914492 C6.25467959,13.7822659 6.10426476,14.1863021 5.78870416,14.4225796 L5.68915962,14.4882491 L3.70577137,15.6339746 L4.70593716,17.3659297 L6.69100799,16.2203551 C7.07401421,15.9993242 7.55671684,16.0560956 7.87798944,16.3599581 C8.5603153,17.0053078 9.38405134,17.4834515 10.28521,17.7516563 C10.6706889,17.8663833 10.9459869,18.1989808 10.9928621,18.5908928 L10.9999537,18.7100873 L11,21 L13,21 L13.0006762,18.7096248 C13.0008068,18.2673532 13.2914454,17.8776966 13.7153292,17.7514958 C14.6162786,17.4832605 15.4398222,17.0051778 16.1220106,16.3599581 C16.4111559,16.0864819 16.8310596,16.0131494 17.1913604,16.1623492 L17.308992,16.2203551 L19.2942286,17.3660254 L20.2942286,15.6339746 L18.3108404,14.4882491 C17.9282498,14.2672415 17.7360462,13.8213476 17.8380624,13.3914492 C17.9452829,12.9396193 18,12.4737724 18,12 C18,11.5262276 17.9452829,11.0603807 17.8380624,10.6085508 C17.7453204,10.2177341 17.8957352,9.81369791 18.2112958,9.57742042 L18.3108404,9.51175092 L20.2942286,8.3660254 L19.2940628,6.6340703 L17.308992,7.77964485 C16.9259858,8.00067585 16.4432832,7.94390436 16.1220106,7.64004192 C15.4398222,6.99482224 14.6162786,6.51673953 13.7153292,6.24850424 C13.3299803,6.13377617 13.0547514,5.80131612 13.0077964,5.40953184 L13.0006762,5.29037524 L13,3 Z M12,8 C14.209139,8 16,9.790861 16,12 C16,14.209139 14.209139,16 12,16 C9.790861,16 8,14.209139 8,12 C8,9.790861 9.790861,8 12,8 Z M12,10 C10.8954305,10 10,10.8954305 10,12 C10,13.1045695 10.8954305,14 12,14 C13.1045695,14 14,13.1045695 14,12 C14,10.8954305 13.1045695,10 12,10 Z"/>
</svg>

<svg xmlns="http://www.w3.org/2000/svg" viewBox="0 0 24 24">
  <path d="M13 1a2 2 0 0 1 2 1.85v1.73l.25.1c.41.19.8.4 1.18.66l.28.2.21.15 1.37-.79a2 2 0 0 1 2.56.47l.1.13.08.13 1 1.74a2 2 0 0 1-.6 2.64l-.14.09-1.37.79.05.36.01.19.01.18.01.38c0 .17 0 .34-.02.5l-.01.25-.05.36 1.37.8a2 2 0 0 1 .87 2.44l-.06.15-.07.13-1 1.74a2 2 0 0 1-2.6.8l-.14-.07-1.37-.8-.2.17a8 8 0 0 1-1.17.7l-.3.14-.25.1V21a2 2 0 0 1-1.7 1.98l-.15.01L13 23h-2a2 2 0 0 1-2-1.85v-1.73l-.24-.1c-.42-.19-.82-.4-1.2-.66l-.27-.2-.21-.16-1.37.8a2 2 0 0 1-2.56-.47l-.1-.13-.08-.13-1-1.74a2 2 0 0 1 .6-2.64l.14-.09 1.37-.8-.05-.35-.01-.19-.01-.18L4 12c0-.17 0-.34.02-.5l.01-.25.05-.36-1.37-.8a2 2 0 0 1-.87-2.44l.06-.15.07-.13 1-1.74a2 2 0 0 1 2.6-.8l.14.07 1.37.8.2-.17a8 8 0 0 1 1.17-.7l.3-.14.25-.1V3a2 2 0 0 1 1.7-1.98l.15-.01L11 1h2zm0 2h-2v2.29a1 1 0 0 1-.71.96 6 6 0 0 0-2.41 1.39 1 1 0 0 1-1.07.2l-.12-.06-1.98-1.15-1 1.74L5.69 9.5a1 1 0 0 1 .47 1.1 6.02 6.02 0 0 0 0 2.78 1 1 0 0 1-.37 1.03l-.1.07-1.98 1.14 1 1.74 1.98-1.15a1 1 0 0 1 1.19.14 6 6 0 0 0 2.4 1.4 1 1 0 0 1 .71.83l.01.12V21h2v-2.29a1 1 0 0 1 .72-.96 6 6 0 0 0 2.4-1.39 1 1 0 0 1 1.07-.2l.12.06 1.98 1.15 1-1.74-1.98-1.14a1 1 0 0 1-.47-1.1 6.02 6.02 0 0 0 0-2.78 1 1 0 0 1 .37-1.03l.1-.07 1.98-1.14-1-1.74-1.98 1.15a1 1 0 0 1-1.19-.14 6 6 0 0 0-2.4-1.4 1 1 0 0 1-.71-.83v-.12L13 3zm-1 5a4 4 0 1 1 0 8 4 4 0 0 1 0-8zm0 2a2 2 0 1 0 0 4 2 2 0 0 0 0-4z"/>
</svg>
